X: 41445
T: Two For Joy
R: waltz
M: 3/4
K: Cmajor
c3/2d/|"C"e3/2d/ c3/2d/ e3/2c/|"G"d2 B2 G2|"F"c2 A3/2B/ c3/2A/|"Em"B2 G2 E2|
"F"F3/2E/ F3/2G/ A3/2F/|"C"[E2] G2 c2|e/f/g e3/2d/ e3/2c/|"G"d4 c3/2d/|
"C"e3/2d/ c3/2d/ e3/2c/|"G"d2 B2 G2|"F"c2 A3/2B/ c3/2A/|"Em"B2 G2 E2|
"Dm7"F3/2E/ F3/2G/ A3/2F/|"C"E2 G2 c3/2d/|e3/2d/ c3/2d/ "G7"c3/2B/|"C"c4 c3/2B/||
"Am"A2 e3 f|e3/2d/ d3/2c/ c3/2B/|"E7"B3/2A/ ^G3/2A/ B3/2c/|B4 A3/2B/|
"Am"c2c3/2d/ c3/2B/|c3/2B/ A3/2B/ c3/2d/|e3/2d/ c3/2B/ A3/2B/|"E7"^G4 e2|
"Dm"f3/2e/ d3/2c/ B3/2A/|"E7"^G2 e3 f|e2 B2 d3/2e/|"Dm7"d3/2c/ A3 B|
"Am"c2 E2 c3/2d/|"E7"c3/2B/ ^G3 A|B3/2c/ d3/2c/ (3BA^G|"Am"A4||

